X: 20212
M: C
L: 1/16
K: G
|:\
g4 f3e d3d e3e | d2d2 ^c2c2 d4 z4 |\
g8 g3B d3g | b8 b3b a3g |\
f2g2a2g2 f4 e4 | d4 d3d d4 "^Fine"z4 :|
|:\
d4 d4 d3d d4 | =f8 A3AA3A |\
|:\
c3Bc3d e8 | e3Bc3e g8 |\
(3(f2e2d2) (3(d2^c2d2) (3(B2A2B2) (3(G2A2B2) | (3(c2e2d2) (3(c2g2e2) d4 z4 |\
c3Bc3d e8 | f3ef3g a8 |\
(3(g2f2e2) (3(d2c2B2) (3(A2G2F2) (3(G2A2B2) | (3(c2G2e2) (3(c2g2e2) c4 "^D.C."z4 :|


